src/components/icons/assets/copy.svg

<svg width="22" height="24" viewBox="0 0 22 24" fill="none" xmlns="http://www.w3.org/2000/svg">
<path d="M15.5 21V22.875C15.5 23.4963 14.9963 24 14.375 24H1.625C1.00367 24 0.5 23.4963 0.5 22.875V5.625C0.5 5.00367 1.00367 4.5 1.625 4.5H5V18.375C5 19.8225 6.17755 21 7.625 21H15.5ZM15.5 4.875V0H7.625C7.00367 0 6.5 0.503672 6.5 1.125V18.375C6.5 18.9963 7.00367 19.5 7.625 19.5H20.375C20.9963 19.5 21.5 18.9963 21.5 18.375V6H16.625C16.0063 6 15.5 5.49375 15.5 4.875ZM21.1705 3.42052L18.0795 0.329484C17.8685 0.11852 17.5824 1.55998e-06 17.284 0L17 0V4.5H21.5V4.21598C21.5 3.91763 21.3815 3.63149 21.1705 3.42052Z" fill="#616161"/>
</svg>

<svg viewBox="0 0 22 24" xmlns="http://www.w3.org/2000/svg"><path d="M15.5 21v1.875c0 .621-.504 1.125-1.125 1.125H1.625A1.125 1.125 0 01.5 22.875V5.625c0-.621.504-1.125 1.125-1.125H5v13.875A2.628 2.628 0 007.625 21H15.5zm0-16.125V0H7.625C7.004 0 6.5.504 6.5 1.125v17.25c0 .621.504 1.125 1.125 1.125h12.75c.621 0 1.125-.504 1.125-1.125V6h-4.875A1.128 1.128 0 0115.5 4.875zm5.67-1.454L18.08.329A1.125 1.125 0 0017.284 0H17v4.5h4.5v-.284c0-.298-.119-.585-.33-.795z"/></svg>
